assets/Woman health worker/Default/Flat/woman_health_worker_flat_default.svg

<svg width="32" height="32" viewBox="0 0 32 32" fill="none" xmlns="http://www.w3.org/2000/svg">
<path d="M22.94 11.82C23.15 11.39 23.26 10.91 23.26 10.41C23.26 9.74 23.06 9.13 22.72 8.61C22.38 8.09 22.2 7.48 22.2 6.86V6.85C22.2 5.05 20.74 3.59 18.94 3.59C18.76 3.59 18.59 3.51 18.49 3.36C17.9 2.54 16.93 2 15.84 2C14.75 2 13.78 2.54 13.19 3.36C13.09 3.5 12.92 3.59 12.74 3.59C10.94 3.59 9.48004 5.05 9.48004 6.85V6.86C9.48004 7.48 9.30004 8.09 8.96004 8.61C8.62004 9.13 8.42004 9.74 8.42004 10.41C8.42004 10.92 8.54004 11.39 8.74004 11.82C8.81004 11.96 8.81004 12.13 8.74004 12.27C8.54004 12.69 8.42004 13.16 8.42004 13.66C8.42004 15.42 9.84004 16.84 11.6 16.84H20.08C21.84 16.84 23.26 15.42 23.26 13.66C23.26 13.16 23.14 12.69 22.94 12.27C22.87 12.13 22.87 11.96 22.94 11.82Z" fill="#F1A11E"/>
<path d="M16 16L10.0281 16.7607C9.67054 16.9923 9.32732 17.244 9 17.5143L8 24L9 30H15.5L16 29.5L16.5 30H23L24 24L23 17.5143C22.6716 17.2431 22.3272 16.9906 21.9684 16.7584L16 16Z" fill="#D3D3D3"/>
<path d="M15.5 30H16.5V24.3302L21.8344 16.6731C20.1433 15.6129 18.1432 15 16 15C14.1128 15 12.3367 15.4752 10.7847 16.3125L15.5 24.1998V30Z" fill="#8B62BF"/>
<path d="M10.8712 19.4434L10.071 19.3003C9.94944 19.2799 9.86841 19.1674 9.87854 19.0448L10.021 16.7651C10.8361 16.2363 11.7257 15.8124 12.6706 15.5127L15.4797 22.1617L15.4849 22.1819C15.493 22.2134 15.5 22.2403 15.5 22.2741V25.9429C15.5 26.1166 15.2873 26.1983 15.1658 26.0757L10.2432 21.0069C10.152 20.9149 10.152 20.7719 10.233 20.6799L11.0028 19.8317C11.1244 19.6989 11.0535 19.474 10.8712 19.4434Z" fill="#E6E6E6"/>
<path d="M19.3294 15.5127L16.5203 22.1617L16.5151 22.182C16.507 22.2134 16.5 22.2403 16.5 22.2741V25.9429C16.5 26.1166 16.7127 26.1984 16.8342 26.0757L21.7568 21.0069C21.848 20.915 21.848 20.7719 21.767 20.6799L20.9972 19.8317C20.8756 19.6989 20.9465 19.4741 21.1288 19.4434L21.929 19.3003C22.0506 19.2799 22.1316 19.1675 22.1215 19.0448L21.979 16.7651C21.1639 16.2363 20.2743 15.8124 19.3294 15.5127Z" fill="#E6E6E6"/>
<path d="M23 17.5142V29.9998H27V25.9998C27 22.584 25.443 19.5317 23 17.5142Z" fill="#E6E6E6"/>
<path d="M9 29.9998V17.5142C6.55699 19.5317 5 22.584 5 25.9998V29.9998H9Z" fill="#E6E6E6"/>
<path d="M15.8699 14.4905C14.0808 14.4905 12.6305 15.9408 12.6305 17.7299V19.7634C13.9162 19.9699 14.8905 21.0857 14.8905 22.4198V23.5798L14.5 23.9999L13.9093 23.5798L13.9093 22.4198C13.9093 21.4793 13.1475 20.7104 12.1999 20.7104C11.2594 20.7104 10.4905 21.4723 10.4905 22.4198V23.5699L10 23.9999L9.50928 23.5699V22.4198C9.50928 21.1176 10.4314 20.0394 11.6493 19.7858V17.7299C11.6493 15.3989 13.5389 13.5093 15.8699 13.5093C18.2008 13.5093 20.0905 15.3989 20.0905 17.7299V24.8499H19.1093V17.7299C19.1093 15.9408 17.6589 14.4905 15.8699 14.4905Z" fill="#635994"/>
<path d="M10.7308 26.7004H11.1599C11.4308 26.7004 11.6505 26.4808 11.6505 26.2098C11.6505 25.9389 11.4308 25.7192 11.1599 25.7192H10.7399L10.3539 26.2098L10.7399 26.6905L10.7308 26.7004Z" fill="#635994"/>
<path d="M13.6599 25.7192H13.3099C13.0389 25.7192 12.8193 25.9389 12.8193 26.2098C12.8193 26.4808 13.0389 26.7004 13.3099 26.7004H13.6599L13.9093 26.2098L13.6599 25.7192Z" fill="#635994"/>
<path d="M9.50928 26.0398V23.5698H10.4905V25.7092H10.7399V26.6904H10.1599C9.79893 26.6904 9.50928 26.4008 9.50928 26.0398Z" fill="#0084CE"/>
<path d="M14.8905 23.5798V26.0498C14.8905 26.4107 14.6009 26.7004 14.2399 26.7004H13.6599V25.7192H13.9093V23.5798H14.8905Z" fill="#0084CE"/>
<path d="M20.9299 25.3198C20.9299 26.0157 20.3658 26.5798 19.6699 26.5798C18.974 26.5798 18.4099 26.0157 18.4099 25.3198C18.4099 24.6239 18.974 24.0598 19.6699 24.0598C20.3658 24.0598 20.9299 24.6239 20.9299 25.3198Z" fill="#0084CE"/>
<path d="M19.6698 26.0299C20.062 26.0299 20.3798 25.712 20.3798 25.3199C20.3798 24.9277 20.062 24.6099 19.6698 24.6099C19.2777 24.6099 18.9598 24.9277 18.9598 25.3199C18.9598 25.712 19.2777 26.0299 19.6698 26.0299Z" fill="#1C5CD7"/>
<path d="M13 10.4C13 11.3002 12.2702 12.03 11.37 12.03C10.4698 12.03 9.73999 11.3002 9.73999 10.4C9.73999 9.4998 10.4698 8.77002 11.37 8.77002C12.2702 8.77002 13 9.4998 13 10.4Z" fill="#FDBB11"/>
<path d="M22.01 10.4C22.01 11.3002 21.2802 12.03 20.38 12.03C19.4797 12.03 18.75 11.3002 18.75 10.4C18.75 9.4998 19.4797 8.77002 20.38 8.77002C21.2802 8.77002 22.01 9.4998 22.01 10.4Z" fill="#FDBB11"/>
<path d="M16 18.5C14.8952 18.5 14 17.5546 14 16.3879V15H18V16.3879C18 17.5546 17.1048 18.5 16 18.5Z" fill="#FCB100"/>
<path d="M11.66 7.15C11.43 7.27 10.89 7.63 10.87 8.56C10.87 8.56 10.8684 8.55983 10.8652 8.55945L10.99 11.68C11.11 14.45 13.24 16.31 15.84 16.31C18.44 16.31 20.57 14.45 20.69 11.68L20.8098 8.68502C20.793 7.38931 19.8793 7.3 19.7 7.3H16.56C15.32 7.3 14.15 6.69 13.45 5.66C13.33 5.49 13.08 5.52 13 5.71L12.92 5.9C12.7 6.45 12.28 6.87 11.76 7.11C11.745 7.115 11.7275 7.1225 11.71 7.13C11.6925 7.1375 11.675 7.145 11.66 7.15Z" fill="#FFC83D"/>
<path d="M13.27 9.12012C13.83 9.12012 14.29 9.51012 14.57 9.94012C14.3198 10.0174 14.0763 10.0866 13.8351 10.1551C13.4209 10.2727 13.0134 10.3884 12.59 10.5401L12.12 10.1101C11.92 9.94012 11.94 9.62012 12.15 9.47012C12.46 9.24012 12.88 9.12012 13.27 9.12012Z" fill="black"/>
<path d="M18.43 9.12012C17.88 9.12012 17.42 9.51012 17.14 9.94012C17.3846 10.0157 17.6228 10.0834 17.8582 10.1504C18.2772 10.2697 18.6874 10.3865 19.11 10.5401L19.58 10.1101C19.78 9.94012 19.76 9.62012 19.55 9.47012C19.24 9.24012 18.82 9.12012 18.43 9.12012Z" fill="black"/>
<path d="M12.1101 10.2597C12.2601 9.65973 12.8001 9.21973 13.4501 9.21973C14.1201 9.21973 14.6801 9.69973 14.8101 10.3297C14.8301 10.4697 14.7201 10.5997 14.5801 10.5997H12.3801C12.2001 10.5997 12.0701 10.4297 12.1101 10.2597Z" fill="white"/>
<path d="M19.6001 10.2597C19.4501 9.65973 18.9101 9.21973 18.2601 9.21973C17.5901 9.21973 17.0401 9.69973 16.9001 10.3297C16.8801 10.4697 16.9901 10.5997 17.1301 10.5997H19.3301C19.5101 10.5997 19.6401 10.4297 19.6001 10.2597Z" fill="white"/>
<path d="M12.77 10.3702C12.77 9.88023 13.16 9.49023 13.65 9.49023C14.14 9.49023 14.53 9.89023 14.53 10.3702C14.53 10.4502 14.52 10.5302 14.5 10.6002H12.8C12.78 10.5302 12.77 10.4502 12.77 10.3702Z" fill="#7D4533"/>
<path d="M18.9401 10.3702C18.9401 9.88023 18.5501 9.49023 18.0601 9.49023C17.5701 9.49023 17.1801 9.89023 17.1801 10.3702C17.1801 10.4502 17.1901 10.5302 17.2101 10.6002H18.9101C18.9301 10.5302 18.9401 10.4502 18.9401 10.3702Z" fill="#7D4533"/>
<path d="M13.65 9.85986C13.92 9.85986 14.15 10.0799 14.15 10.3599C14.15 10.4499 14.13 10.5299 14.1 10.5899H13.21C13.17 10.5199 13.15 10.4399 13.15 10.3599C13.15 10.0899 13.37 9.85986 13.65 9.85986Z" fill="black"/>
<path d="M18.0601 9.85986C17.7901 9.85986 17.5601 10.0799 17.5601 10.3599C17.5601 10.4499 17.5801 10.5299 17.6101 10.5899H18.5001C18.5401 10.5199 18.5601 10.4399 18.5601 10.3599C18.5601 10.0899 18.3401 9.85986 18.0601 9.85986Z" fill="black"/>
<path d="M13.5101 10.0199C13.5101 10.1082 13.4384 10.1799 13.3501 10.1799C13.2617 10.1799 13.1901 10.1082 13.1901 10.0199C13.1901 9.9315 13.2617 9.85986 13.3501 9.85986C13.4384 9.85986 13.5101 9.9315 13.5101 10.0199Z" fill="white"/>
<path d="M17.9201 10.0199C17.9201 10.1082 17.8485 10.1799 17.7601 10.1799C17.6717 10.1799 17.6001 10.1082 17.6001 10.0199C17.6001 9.9315 17.6717 9.85986 17.7601 9.85986C17.8485 9.85986 17.9201 9.9315 17.9201 10.0199Z" fill="white"/>
<path d="M15.84 13.3399C15.33 13.3399 14.85 13.2199 14.44 12.9999C14.3 12.9299 14.15 13.0899 14.24 13.2199C14.58 13.7399 15.17 14.0899 15.84 14.0899C16.51 14.0899 17.1 13.7399 17.44 13.2199C17.52 13.0899 17.38 12.9299 17.24 12.9999C16.84 13.2199 16.36 13.3399 15.84 13.3399Z" fill="#990839"/>
<path d="M15.48 10.1399L14.98 11.7599C14.88 12.0899 15.13 12.4299 15.47 12.4299H16.21C16.56 12.4299 16.81 12.0899 16.7 11.7599L16.2 10.1399C16.09 9.78994 15.59 9.78994 15.48 10.1399Z" fill="#ED9200"/>
<path d="M12.4834 8.57913L12.4875 8.57682C12.4918 8.57445 12.4989 8.57057 12.5087 8.56544C12.5283 8.55517 12.5585 8.53994 12.5981 8.52181C12.6774 8.48545 12.7931 8.4379 12.9352 8.39512C13.2213 8.30894 13.6014 8.24591 14.0013 8.32063C14.1452 8.34751 14.2836 8.25265 14.3105 8.10876C14.3374 7.96486 14.2426 7.82642 14.0987 7.79954C13.5886 7.70426 13.1187 7.78623 12.7823 7.88755C12.6131 7.93852 12.4744 7.99534 12.3772 8.03992C12.3285 8.06226 12.2899 8.08164 12.2627 8.09586C12.2491 8.10298 12.2384 8.10881 12.2307 8.11309L12.2213 8.11833L12.2184 8.12001L12.2174 8.1206C12.0909 8.19426 12.0473 8.35695 12.1209 8.48345C12.1946 8.60995 12.3569 8.65279 12.4834 8.57913Z" fill="#D37034"/>
<path d="M19.569 8.48345C19.6427 8.35695 19.5997 8.1946 19.4732 8.12094L19.4716 8.12001L19.4686 8.11833L19.4593 8.11309C19.4516 8.10881 19.4408 8.10298 19.4272 8.09586C19.4001 8.08164 19.3615 8.06226 19.3128 8.03992C19.2155 7.99534 19.0769 7.93852 18.9077 7.88755C18.5713 7.78623 18.1013 7.70426 17.5913 7.79954C17.4474 7.82642 17.3526 7.96486 17.3794 8.10876C17.4063 8.25265 17.5448 8.34751 17.6886 8.32063C18.0886 8.24591 18.4687 8.30894 18.7548 8.39512C18.8968 8.4379 19.0126 8.48545 19.0919 8.52181C19.1314 8.53994 19.1617 8.55517 19.1813 8.56544C19.1911 8.57057 19.1982 8.57445 19.2025 8.57682L19.2066 8.57913C19.3331 8.65279 19.4954 8.60995 19.569 8.48345Z" fill="#D37034"/>
</svg>

<svg xmlns="http://www.w3.org/2000/svg" width="32" height="32" fill="none"><path fill="#F1A11E" d="M22.94 11.82c.21-.43.32-.91.32-1.41 0-.67-.2-1.28-.54-1.8s-.52-1.13-.52-1.75v-.01c0-1.8-1.46-3.26-3.26-3.26-.18 0-.35-.08-.45-.23A3.266 3.266 0 0 0 15.84 2c-1.09 0-2.06.54-2.65 1.36-.1.14-.27.23-.45.23a3.26 3.26 0 0 0-3.26 3.26v.01c0 .62-.18 1.23-.52 1.75a3.26 3.26 0 0 0-.22 3.21c.07.14.07.31 0 .45a3.175 3.175 0 0 0 2.86 4.57h8.48a3.175 3.175 0 0 0 2.86-4.57.508.508 0 0 1 0-.45Z"/><path fill="#D3D3D3" d="m16 16-5.972.76c-.357.232-.7.484-1.028.754L8 24l1 6h6.5l.5-.5.5.5H23l1-6-1-6.486a11.04 11.04 0 0 0-1.032-.756L16 16Z"/><path fill="#8B62BF" d="M15.5 30h1v-5.67l5.334-7.657A10.948 10.948 0 0 0 16 15a10.95 10.95 0 0 0-5.215 1.313L15.5 24.2V30Z"/><path fill="#E6E6E6" d="m10.871 19.443-.8-.143a.236.236 0 0 1-.192-.255l.142-2.28a10.952 10.952 0 0 1 2.65-1.252l2.809 6.649.005.02c.008.031.015.058.015.092v3.669c0 .174-.213.255-.334.133l-4.923-5.07a.24.24 0 0 1-.01-.326l.77-.848c.121-.133.05-.358-.132-.389ZM19.33 15.513l-2.81 6.649-.005.02c-.008.031-.015.058-.015.092v3.669c0 .174.213.255.334.133l4.923-5.07a.24.24 0 0 0 .01-.326l-.77-.848c-.121-.133-.05-.358.132-.389l.8-.143a.236.236 0 0 0 .193-.255l-.143-2.28a10.952 10.952 0 0 0-2.65-1.252ZM23 17.514V30h4v-4c0-3.416-1.557-6.468-4-8.486ZM9 30V17.514C6.557 19.532 5 22.584 5 26v4h4Z"/><path fill="#635994" d="M15.87 14.49a3.24 3.24 0 0 0-3.24 3.24v2.033a2.692 2.692 0 0 1 2.26 2.657v1.16l-.39.42-.59-.42v-1.16a1.71 1.71 0 0 0-3.42 0v1.15L10 24l-.49-.43v-1.15a2.69 2.69 0 0 1 2.14-2.634V17.73a4.22 4.22 0 1 1 8.44 0v7.12h-.98v-7.12a3.24 3.24 0 0 0-3.24-3.24ZM10.73 26.7h.43a.49.49 0 0 0 0-.98h-.42l-.386.49.386.48-.01.01ZM13.66 25.72h-.35a.49.49 0 0 0 0 .98h.35l.25-.49-.25-.49Z"/><path fill="#0084CE" d="M9.51 26.04v-2.47h.98v2.14h.25v.98h-.58a.648.648 0 0 1-.65-.65ZM14.89 23.58v2.47c0 .36-.29.65-.65.65h-.58v-.98h.25v-2.14h.98ZM20.93 25.32a1.26 1.26 0 1 1-2.52 0 1.26 1.26 0 0 1 2.52 0Z"/><path fill="#1C5CD7" d="M19.67 26.03a.71.71 0 1 0 0-1.42.71.71 0 0 0 0 1.42Z"/><path fill="#FDBB11" d="M13 10.4a1.63 1.63 0 1 1-3.26 0 1.63 1.63 0 0 1 3.26 0ZM22.01 10.4a1.63 1.63 0 1 1-3.26 0 1.63 1.63 0 0 1 3.26 0Z"/><path fill="#FCB100" d="M16 18.5c-1.105 0-2-.945-2-2.112V15h4v1.388c0 1.167-.895 2.112-2 2.112Z"/><path fill="#FFC83D" d="M11.66 7.15c-.23.12-.77.48-.79 1.41h-.005l.125 3.12c.12 2.77 2.25 4.63 4.85 4.63 2.6 0 4.73-1.86 4.85-4.63l.12-2.995C20.793 7.389 19.88 7.3 19.7 7.3h-3.14c-1.24 0-2.41-.61-3.11-1.64a.257.257 0 0 0-.45.05l-.08.19a2.253 2.253 0 0 1-1.26 1.25Z"/><path fill="#000" d="M13.27 9.12c.56 0 1.02.39 1.3.82-.25.077-.494.147-.735.215-.414.118-.822.233-1.245.385l-.47-.43a.41.41 0 0 1 .03-.64c.31-.23.73-.35 1.12-.35ZM18.43 9.12c-.55 0-1.01.39-1.29.82.245.076.483.143.718.21.42.12.83.236 1.252.39l.47-.43a.41.41 0 0 0-.03-.64c-.31-.23-.73-.35-1.12-.35Z"/><path fill="#fff" d="M12.11 10.26c.15-.6.69-1.04 1.34-1.04.67 0 1.23.48 1.36 1.11.02.14-.09.27-.23.27h-2.2c-.18 0-.31-.17-.27-.34ZM19.6 10.26c-.15-.6-.69-1.04-1.34-1.04-.67 0-1.22.48-1.36 1.11-.02.14.09.27.23.27h2.2c.18 0 .31-.17.27-.34Z"/><path fill="#7D4533" d="M12.77 10.37c0-.49.39-.88.88-.88a.881.881 0 0 1 .85 1.11h-1.7a.852.852 0 0 1-.03-.23ZM18.94 10.37c0-.49-.39-.88-.88-.88a.881.881 0 0 0-.85 1.11h1.7c.02-.07.03-.15.03-.23Z"/><path fill="#000" d="M13.65 9.86c.27 0 .5.22.5.5 0 .09-.02.17-.05.23h-.89a.465.465 0 0 1-.06-.23c0-.27.22-.5.5-.5ZM18.06 9.86c-.27 0-.5.22-.5.5 0 .09.02.17.05.23h.89c.04-.07.06-.15.06-.23 0-.27-.22-.5-.5-.5Z"/><path fill="#fff" d="M13.51 10.02a.16.16 0 1 1-.32 0 .16.16 0 0 1 .32 0ZM17.92 10.02a.16.16 0 1 1-.32 0 .16.16 0 0 1 .32 0Z"/><path fill="#990839" d="M15.84 13.34c-.51 0-.99-.12-1.4-.34-.14-.07-.29.09-.2.22.34.52.93.87 1.6.87s1.26-.35 1.6-.87c.08-.13-.06-.29-.2-.22-.4.22-.88.34-1.4.34Z"/><path fill="#ED9200" d="m15.48 10.14-.5 1.62c-.1.33.15.67.49.67h.74c.35 0 .6-.34.49-.67l-.5-1.62c-.11-.35-.61-.35-.72 0Z"/><path fill="#D37034" d="m12.483 8.58.005-.003a1.097 1.097 0 0 1 .11-.055c.08-.037.195-.084.337-.127a2.28 2.28 0 0 1 1.066-.074.265.265 0 0 0 .098-.521 2.81 2.81 0 0 0-1.317.088 3.18 3.18 0 0 0-.551.225l-.01.005-.003.002a.265.265 0 1 0 .266.459ZM19.569 8.483a.265.265 0 0 0-.096-.362l-.001-.001-.003-.002-.01-.005a1.508 1.508 0 0 0-.146-.073 3.187 3.187 0 0 0-.405-.152A2.81 2.81 0 0 0 17.59 7.8a.265.265 0 0 0 .098.52c.4-.074.78-.011 1.066.075a2.653 2.653 0 0 1 .448.182l.004.002c.126.074.288.03.362-.096Z"/></svg>
